!!!COM: Palestrina, Giovanni Perluigi da
!!!OPR: Missa Assumpta est Maria
!!!OMD: Benedictus
!!!OTL: Hosanna
**kern	**kern	**kern	**kern	**kern	**kern
*Ibass	*Itenor	*Itenor	*Icalto	*Icant	*Icant
!Bassus	!Tenor 2	!Tenor 1	!Altus	!Cantus 2	!Cantus 1
*clefF4	*clefGv2	*clefGv2	*clefG2	*clefG2	*clefG2
*k[]	*k[]	*k[]	*k[]	*k[]	*k[]
*G:mix	*G:mix	*G:mix	*G:mix	*G:mix	*G:mix
*M3/2	*M3/2	*M3/2	*M3/2	*M3/2	*M3/2
=36	=36	=36	=36	=36	=36
1r	1r	1r	1r	2g	1r
.	.	.	.	2b	.
2r	2r	2r	2r	2cc	2r
=37	=37	=37	=37	=37	=37
1r	1r	2g	1r	1dd	2g
.	.	2g	.	.	2b
2r	2r	2c	2r	2ee	2cc
=38	=38	=38	=38	=38	=38
1r	1r	1g	1r	1b	1dd
2r	2r	2c	2r	2cc	2ee
=39	=39	=39	=39	=39	=39
1r	1r	4g	1r	2dd	2b
.	.	4f	.	.	.
.	.	4e	.	2.ee	2.cc
.	.	4d	.	.	.
2r	2r	4c	2r	.	.
.	.	4d	.	4ff	4b
=40	=40	=40	=40	=40	=40
1r	1r	2e	1r	1gg	2g
.	.	1d	.	.	1a
2r	2r	.	2r	2ff#	.
=41	=41	=41	=41	=41	=41
1r	1r	2e	2c	1gg	[1.cc
.	.	2g	2e	.	.
2r	2r	2a	2f	2r	.
=42	=42	=42	=42	=42	=42
2c	2c	2.e	1g	1r	1.cc]
2c	2e	.	.	.	.
.	.	4d	.	.	.
2F	2f	2c	2a	2r	.
=43	=43	=43	=43	=43	=43
1c	1g	1r	1e	1cc	1r
2F	2a	2r	2f	2cc	2r
=44	=44	=44	=44	=44	=44
4c	2e	1r	2g	1cc	1r
4B	.	.	.	.	.
4A	2.f	.	2.a	.	.
4G	.	.	.	.	.
4F	.	2r	.	2ff	2r
4G	4e	.	4b	.	.
=45	=45	=45	=45	=45	=45
2A	2c	1r	1cc	2ee	1r
1G	1d	.	.	1gg	.
.	.	2r	2b	.	2r
=46	=46	=46	=46	=46	=46
1C	1c	2c	1cc	2ee	2g
.	.	2e	.	2cc	2g
2r	2r	2f	2r	2dd	2a
=47	=47	=47	=47	=47	=47
1r	1r	1g	1r	2ee	1b
.	.	.	.	2dd	.
2r	2r	2a	2r	2ff	2cc
=48	=48	=48	=48	=48	=48
1r	1r	2.g	1r	2.ee	2.b
.	.	8f	.	8dd	8a
.	.	8e	.	8cc	8g
2r	2r	2f	2r	2dd	2a
=49	=49	=49	=49	=49	=49
2C	2G	1e	2c	1ee	1cc
2E	2G	.	2c	.	.
2F	2A	2r	2d	2r	2r
=50	=50	=50	=50	=50	=50
1G	1B	1r	2e	1r	1r
.	.	.	2d	.	.
2A	2c	2r	2f	2r	2r
=51	=51	=51	=51	=51	=51
2.G	1B	2G	2.e	1r	1r
.	.	2G	.	.	.
8F	.	.	8d	.	.
8E	.	.	8c	.	.
2F	2A	2A	2d	2r	2r
=52	=52	=52	=52	=52	=52
2E	2G	1B	1e	2g	1r
2E	2r	.	.	2g	.
2A	2r	2c	2f	2a	2r
=53	=53	=53	=53	=53	=53
2G	1r	2.d	1g	2b	2g
2G	.	.	.	2dd	2b
.	.	4B	.	.	.
2C	2r	2e	2r	2cc	2cc
=54	=54	=54	=54	=54	=54
2G	2G	1d	2g	2b	1dd
2G	2B	.	2g	2dd	.
2r	2c	2r	2e	4cc	2ee
.	.	.	.	4b	.
=55	=55	=55	=55	=55	=55
1r	2d	1r	2f	2a	2.dd
.	2B	.	2d	2g	.
.	.	.	.	.	8cc
.	.	.	.	.	8b
2r	2A	2r	4e	2a	2cc
.	.	.	4f	.	.
=56	=56	=56	=56	=56	=56
1r	2G	1r	1g	2dd	2b
.	2.d	.	.	1dd	1a
2r	.	2r	2f#	.	.
.	4c	.	.	.	.
=57	=57	=57	=57	=57	=57
2G	4B	2d	2g	2dd	2g
.	4A	.	.	.	.
2B	2G	2d	2g	2r	2r
2c	2r	2e	2a	2r	2r
=58	=58	=58	=58	=58	=58
1d	1r	1f	2a	1r	1r
.	.	.	2b	.	.
2c	2r	2e	2a	2r	2r
=59	=59	=59	=59	=59	=59
2.B	2G	1d	2.g	1r	1r
.	2B	.	.	.	.
8A	.	.	8f#	.	.
8G	.	.	8e	.	.
2A	2c	2c	2f#	2r	2r
=60	=60	=60	=60	=60	=60
1G	1d	1B	1g	2g	2b
.	.	.	.	2b	2dd
2C	2c	2r	2g	2cc	2ee
=61	=61	=61	=61	=61	=61
1G	1B	2G	1g	1dd	1dd
.	.	2B	.	.	.
2C	2G	2c	2g	2ee	2cc
=62	=62	=62	=62	=62	=62
1G	2.B	1d	1g	2dd	2b
.	.	.	.	2b	2g
.	4c	.	.	.	.
[2G	2d	[2B	2d	2g	[2b
=63	=63	=63	=63	=63	=63
2G]	2d	2B]	1g	2g	4b]
.	.	.	.	.	4cc
1D	1d	1A	.	1a	1dd
.	.	.	2f#	.	.
=64	=64	=64	=64	=64	=64
1.G	1.B	1.G	1.g	1.b	1.dd
==	==	==	==	==	==
*-	*-	*-	*-	*-	*-
!!!CDT: 1525/^1526/-1594/2/2
!!!OCY: Italia
!!!AGN: Mass (Parody)
!!!AST: renaissance, vocal
!!!ASW: Motet (Palestrina)
!!!PWK: Masses, Book 9
!!!RNB: Cadence finals: C
!!!YOR: Le Opere Complete, v. 25, p. 209
!!!YOO: Rome, Italy: Fratelli Scalera
!!!END: 1992//
!!!EED: John Miller
!!!YEC: Copyright 2000, John Miller
!!!YEN: United States of America
!!!YEM: Rights to all derivative electronic formats reserved.
!!!YEM: Refer to licensing agreement for further details.
!!!YEM: This file must be accompanied by the licensing agreement.
!!!YEM: A copy of the licensing agreement may be found at http://www.music-cog.ohio-state.edu/HumdrumDatabases/Palestrina/license.txt
!!!EMD: converted to Humdrum by Bret Aarden
